images/linkedin-social.svg

<svg width="40" height="40" viewBox="0 0 40 40" fill="none" xmlns="http://www.w3.org/2000/svg">
<path d="M40 20C40 25.5228 37.7614 30.5228 34.1421 34.1421C30.5228 37.7614 25.5228 40 20 40C14.4772 40 9.47715 37.7614 5.85786 34.1421C2.23858 30.5228 0 25.5228 0 20C0 14.4772 2.23858 9.47715 5.85786 5.85786C9.47715 2.23858 14.4772 0 20 0C25.5228 0 30.5228 2.23858 34.1421 5.85786C37.7614 9.47715 40 14.4772 40 20Z" fill="white" fill-opacity="0.1"/>
<g clip-path="url(#clip0_297046_1362)">
<path d="M31.994 32.0001V31.9991H32V23.1971C32 18.8911 31.073 15.5741 26.039 15.5741C23.619 15.5741 21.995 16.9021 21.332 18.1611H21.262V15.9761H16.489V31.9991H21.459V24.0651C21.459 21.9761 21.855 19.9561 24.442 19.9561C26.991 19.9561 27.029 22.3401 27.029 24.1991V32.0001H31.994Z" fill="#F4F4FD"/>
<path d="M8.396 15.9769H13.372V31.9999H8.396V15.9769Z" fill="#F4F4FD"/>
<path d="M10.882 8C9.291 8 8 9.291 8 10.882C8 12.473 9.291 13.791 10.882 13.791C12.473 13.791 13.764 12.473 13.764 10.882C13.763 9.291 12.472 8 10.882 8V8Z" fill="#F4F4FD"/>
</g>
<defs>
<clipPath id="clip0_297046_1362">
<rect width="24" height="24" fill="white" transform="translate(8 8)"/>
</clipPath>
</defs>
</svg>

<svg xmlns="http://www.w3.org/2000/svg" width="40" height="40" fill="none"><path fill="#fff" fill-opacity=".1" d="M40 20a19.937 19.937 0 0 1-5.858 14.142A19.937 19.937 0 0 1 20 40a19.937 19.937 0 0 1-14.142-5.858A19.937 19.937 0 0 1 0 20 19.938 19.938 0 0 1 5.858 5.858 19.938 19.938 0 0 1 20 0a19.937 19.937 0 0 1 14.142 5.858A19.937 19.937 0 0 1 40 20Z"/><g fill="#F4F4FD" clip-path="url(#a)"><path d="M31.994 32H32v-8.803c0-4.306-.927-7.623-5.961-7.623-2.42 0-4.044 1.328-4.707 2.587h-.07v-2.185h-4.773V32h4.97v-7.934c0-2.089.396-4.109 2.983-4.109 2.549 0 2.587 2.384 2.587 4.243V32h4.965ZM8.396 15.977h4.976V32H8.396V15.977ZM10.882 8A2.883 2.883 0 0 0 8 10.882c0 1.591 1.291 2.909 2.882 2.909 1.591 0 2.882-1.318 2.882-2.909A2.884 2.884 0 0 0 10.882 8Z"/></g><defs><clipPath id="a"><path fill="#fff" d="M8 8h24v24H8z"/></clipPath></defs></svg>
